tools/download-figma-icons/icons/solid/magnifier-and-euro.svg

<svg width="25" height="24" viewBox="0 0 25 24" fill="none" xmlns="http://www.w3.org/2000/svg">
<path fill-rule="evenodd" clip-rule="evenodd" d="M12.1574 8.37748C12.5699 8.37748 12.9074 8.70748 12.9074 9.12747C12.9074 9.53997 12.5699 9.87746 12.1574 9.87746H7.08748C7.02749 10.2825 7.02749 10.6875 7.08748 11.0925H12.1574C12.5699 11.0925 12.9074 11.4299 12.9074 11.8424C12.9074 12.2549 12.5699 12.5924 12.1574 12.5924H7.61998C7.79248 12.8774 7.98748 13.1549 8.23497 13.4024C9.32996 14.4974 10.9424 14.8882 12.4274 14.4074C12.7724 14.2957 13.1174 14.1224 13.4474 13.8974C13.7924 13.6649 14.2574 13.7549 14.4899 14.0999C14.7224 14.4374 14.6324 14.9024 14.2874 15.1349C13.8374 15.4424 13.3649 15.6749 12.8849 15.8324C12.3149 16.0199 11.7224 16.1107 11.1374 16.1107C9.67496 16.1107 8.24997 15.5324 7.16998 14.4599C6.62249 13.9124 6.20999 13.2749 5.9325 12.5924H4.28251C3.86252 12.5924 3.53252 12.2549 3.53252 11.8424C3.53252 11.4299 3.86252 11.0925 4.28251 11.0925H5.565C5.52 10.6875 5.52 10.2825 5.565 9.87746H4.28251C3.86252 9.87746 3.53252 9.53997 3.53252 9.12747C3.53252 8.70748 3.86252 8.37748 4.28251 8.37748H5.9325C6.20999 7.69499 6.62249 7.05749 7.16998 6.51C9.06747 4.60502 12.0599 4.32002 14.2874 5.82001C14.6324 6.0525 14.7224 6.51825 14.4899 6.8625C14.2574 7.20749 13.7924 7.29824 13.4474 7.06499C11.8199 5.9625 9.62246 6.17325 8.23497 7.56749C7.98748 7.81499 7.79248 8.09248 7.61998 8.37748H12.1574ZM23.6698 22.0805L18.6448 17.0548C20.0923 15.2548 20.9698 12.9674 20.9698 10.4856C20.9698 4.7032 16.2673 0 10.4849 0C4.70245 0 0 4.7032 0 10.4856C0 16.2681 4.70245 20.9698 10.4849 20.9698C12.9674 20.9698 15.2548 20.0923 17.0548 18.6448L22.0798 23.6705C22.1923 23.7748 22.3123 23.8648 22.4548 23.9173C22.5898 23.9698 22.7323 23.9998 22.8748 23.9998C23.0173 23.9998 23.1598 23.9698 23.2948 23.9173C23.4373 23.8648 23.5573 23.7748 23.6698 23.6705C24.1123 23.2355 24.1123 22.5223 23.6698 22.0805Z" fill="black"/>
</svg>

<svg width="25" height="24" viewBox="0 0 25 24" fill="none" xmlns="http://www.w3.org/2000/svg"><path fill-rule="evenodd" clip-rule="evenodd" d="M12.157 8.377c.413 0 .75.33.75.75 0 .413-.337.75-.75.75h-5.07c-.06.405-.06.81 0 1.215h5.07c.413 0 .75.338.75.75 0 .413-.337.75-.75.75H7.62c.172.285.367.563.615.81a4.121 4.121 0 0 0 4.192 1.005 4.03 4.03 0 0 0 1.02-.51.75.75 0 0 1 1.043.203.742.742 0 0 1-.203 1.035 5.56 5.56 0 0 1-1.402.697 5.6 5.6 0 0 1-1.748.279 5.626 5.626 0 0 1-5.205-3.519h-1.65a.747.747 0 0 1-.75-.75c0-.412.33-.75.75-.75h1.283a5.485 5.485 0 0 1 0-1.215H4.283a.747.747 0 0 1-.75-.75c0-.42.33-.75.75-.75h1.65a5.624 5.624 0 0 1 8.355-2.557.75.75 0 0 1 .202 1.042.749.749 0 0 1-1.043.203 4.115 4.115 0 0 0-5.212.502 4.199 4.199 0 0 0-.615.81h4.537ZM23.67 22.081l-5.025-5.026a10.463 10.463 0 0 0 2.325-6.57C20.97 4.704 16.267 0 10.485 0 4.702 0 0 4.703 0 10.486 0 16.268 4.702 20.97 10.485 20.97c2.482 0 4.77-.878 6.57-2.325l5.025 5.026a1.135 1.135 0 0 0 .795.329 1.135 1.135 0 0 0 .795-.33 1.118 1.118 0 0 0 0-1.59Z" fill="currentColor"/></svg>
